X:1
T:mem cont
T:Memory 
T:Transcribed by Owen Sheehan
%%score ( 1 2 ) { ( 3 6 ) | ( 4 5 ) }
L:1/8
Q:1/4=80
M:12/8
K:C
V:1 treble nm="Voice" snm="Vo."
V:2 treble 
V:3 treble nm="Piano" snm="Pno."
V:6 treble 
V:4 bass 
V:5 bass 
V:1
"^Freely and Expressively" z2 x x2 x x2 x x2 x | z12 ||[K:Bb]!mp! B3 B3- BAB cBG | %3
w: ||mem- ry * turn you face to the|
 B3 B3- BAB cA>F | G3 G3- GEF GFE | D6- D3 D2 F |[M:10/8] F3 C2 D EFGA |[M:12/8] BAG F3- F3 D2 B, | %8
w: moon- light * let your mem- o- ry|Lead you * o- pen up en- ter|It * if you|find there the mean- ing of what|hap- i- ness is * then a|
 F3 F3 z3 G,2 B, | B,6 z2 z z2 z | B3 B3- BAB cBG | B3 B3- BAB cA>F | G3 G3- GEF GFE | %13
w: new life will be-|gin|Mem- ry * all a- lone in the|moon- light * I can smile at the|old days * I was bea- uti- ful|
 D6- D3 D2 F |[M:10/8] F3 C2 D EFGA |[M:12/8] BAG F3- F3 D2 B, | F3 F3- F3 G,2 B, |[M:6/8] B,3 z3 | %18
w: then * I re-|mem- ber the time I knew what|Hap- i- ness was * let the|mem- ory * live a-|again|
[M:12/8] A3 d3 A3 G3 | A3 d3 A3- A2 G | A3 d3 d3 c3 | c2 c2 z2 z2 z2 z =E | F3 F3 F2 A- AGF | %23
w: Burnt out ends of|smo- ky days * the|stale cold smell of|morn- ing a|steet- lamp dies a- * no- ther|
 =E3 E3 E2 G- G2 F |!<(! A3 A3 A3 =B3!<)! | %25
w: night is o- ver * a|no- ther day is|
[Q:1/4=80] c3[Q:1/4=70]"^\n" G3- G3[Q:1/4=80]"^\n" z3[Q:1/4=76]"^\n\n"[Q:1/4=73]"^\n\n" | %26
w: dawn- ing *|
 B3 B3- BAB cBG | B3 B3- BAB cA>F | G3 G3- GEF GFE | D6- D3 D2 F |[M:10/8] F3 C2 D EFGA | %31
w: Day- light * I must wait for the|sun- rise * I must think of a|new life * and i Mus- n't give|in * when the|dawn comes ton- night will be a|
[M:12/8] BAG F3- F3 D2 B, | F3 F3- F3 G,2 B, |[M:6/8] B,4 z2 |[K:Gb][M:12/8] z12 | z12 | z12 | %37
w: mem- o- ry too * and a|new day * will be-|gin||||
 z12 |[M:10/8] z10 |[M:12/8] z12 | z12 |[M:6/8] z6 |[M:12/8][Q:1/4=90]"^\n" B3 d3 B3 A3 | %43
w: |||||sun- light through the|
 B3 d3 B3 A3 | B3 d3 d3- d =c2 | A3 A3 z2 z z2 z | d3 d3 d2 f- fed | =c3 c3 c2 e- e D2 | %48
w: trees in su- mmer|end- less mas- * que-|ra- ding|like a flo- wer * as the|dawn is break- ing * The|
 F3 F3 F3 =G3 | %49
w: mem- o- ry is|
[Q:1/4=80]"_poco rit" A3[Q:1/4=77]"^\n\n" E3[Q:1/4=75]"^\n" z6[Q:1/4=72]"^\n"[Q:1/4=69][Q:1/4=65][Q:1/4=63]"^\n" | %50
w: fa- ding|
[K:Db][Q:1/4=80]"^\n" d3 d3- dcd edB | d3 d3- dcd ed>A | %52
w: touch me * it's so ea- sy to|leave me * all a- lone with the|
 B3 B3- B[Q:1/4=80]"_rall."GA[Q:1/4=77] BA[Q:1/4=74]G | %53
w: mem- ry * of my days in the|
[Q:1/4=70] F6 z2 z[Q:1/4=59] F2[Q:1/4=56] A[Q:1/4=67][Q:1/4=65][Q:1/4=62] | %54
w: sun if you|
[M:10/8][Q:1/4=80]"_a tempo" A3 E2 F GABc | %55
w: touch me you'll un- der- stand what|
[M:12/8] dcB[Q:1/4=100]"_rall" A6 F2[Q:1/4=74]"^\n" D[Q:1/4=77]"^\n" | %56
w: hap- i- ness is Look a|
[Q:1/4=70]"^\n" A3[Q:1/4=65] A6[Q:1/4=59] B2[Q:1/4=56]"^\n" d[Q:1/4=67][Q:1/4=62] | %57
w: new day has be-|
[Q:1/4=75]"_a tempo (slightly slower)\n" d8 z z2 z | z12 | z12 | z12 |] %61
w: gun||||
V:2
 x12 | x12 ||[K:Bb] x12 | x12 | x12 | x12 |[M:10/8] x10 |[M:12/8] x12 | x12 | x12 | x12 | x12 | %12
 x12 | x12 |[M:10/8] x10 |[M:12/8] x12 | x12 |[M:6/8] x6 |[M:12/8] x12 | x12 | x12 | x12 | x12 | %23
 x12 | x12 | x12 | x12 | x12 | x12 | x12 |[M:10/8] x10 |[M:12/8] x12 | x12 |[M:6/8] x6 | %34
[K:Gb][M:12/8] x12 | x12 | x12 | x12 |[M:10/8] x10 |[M:12/8] x12 | x12 |[M:6/8] x6 |[M:12/8] x12 | %43
 x12 | x12 | x12 | D3 D3 D2 F- FED | =C3 C3 C2 E- E x2 | x12 | x12 |[K:Db] x12 | x12 | x12 | x12 | %54
[M:10/8] x10 |[M:12/8] x12 | x12 | x12 | x12 | x12 | x12 |] %61
V:3
[K:Bb]!mp! z12 | z12 ||[K:Bb] b3 b3- bab c'bg | b3 b3- bab c'b>f | g3 g3- gef gfe | d6- d3 d2 f | %6
[M:10/8] f3 c2 d!<(! efga!<)! |[M:12/8] bag f3- f3 d2 B | !arpeggio![Acf]6 z3 G2 B | B6 z2 z4 | %10
 !arpeggio![dfb]3 !arpeggio![dfb]3- [dfb]ab c'bg | %11
 !arpeggio![dgb]3 !arpeggio![dgb]3- [dgb]ab c'b>f | %12
 !arpeggio![Beg]3 !arpeggio![Beg]3- [Beg]ef gfe | !arpeggio![FAd]6- [FAd]3 D2 F | %14
[M:10/8] F3 C2 D!<(! EFGA!<)! |[M:12/8] BAG F3- F3 d2 B | !arpeggio![FAcf]3 f3- f3 G2 B | %17
[M:6/8] B6 |[M:12/8]!p! z3 !arpeggio![FAd]3 !arpeggio![Adf]3 !arpeggio![Gce]3 | %19
 z3 !arpeggio![Adf]3 !arpeggio![dfa]3 !arpeggio![ceg]3 | (fdA) (fdA) (fdB) (gec) | %21
"_cresc." (c'fc) (fcA) cAF z3 |!mp! f3 f3 f2 !arpeggio!a- agf | =e3 e3 e2 g- g2 f | %24
!<(! [dfa]3 [dfa]3 [dfa]3 [dfg=b]3!<)! |!mf! [=egc']3 [ceg]3- [ceg]3 z3 |!mp! B3 B3- BAB cB>G | %27
 B3 B3- BAB cBF | G3 G3- GEF GFE | D6- D3 d2 f |[M:10/8] f3 c2 d efga |[M:12/8] bag f3- f3 d2 B | %32
 !arpeggio![FAcf]3 f3- f3 G2 B |[M:6/8] B3 !tenuto![FBd]!tenuto![Ef]!tenuto![Fg] | %34
[K:Gb][M:12/8]!f! [Bdg]3 [Bdg]3- [Bdg][Ff][Gg] [Aa][Gg][Ee] | %35
 [Beg]3 [Beg]3- [Beg][Ff][Gg] [Aa][Gg][Dd] | [Ece]3 [Ece]3- [Ece][Cc][Dd] [Ee][Dd][Cc] | %37
 [DGB]6- [DGB]3 !tenuto![Bb]2 !tenuto![cc'] |[M:10/8] [dd']3 [Aa]2 [Bb] c[dd'][ee'][ff'] | %39
[M:12/8] [be'g'][ff'][ee'] [bd'f']3- [bd'f']3 [egb]2 [Beg] | [fad']3- [fad']3 [CE]3 G3 | %41
[M:6/8]!>(! [B,DG]6!>)! | %42
[M:12/8]!mp! !arpeggio![B,DF]3 !arpeggio![DFB]3 !arpeggio![B,DF]3 !arpeggio![A,CE]3 | %43
 !arpeggio![B,DF]3 !arpeggio![DFB]3 !arpeggio![B,DF]Bd !arpeggio![Ace]3 | %44
 [Bdf]3 [dfb]3 [dgb]3- [dgb] [=cea]2 |!<(! [dfa]3 [dfa]3 EAd fa=c'!<)! | %46
!f! [fbd']3 [fbd']3 [gbd']2 [bd'f']- [bd'f'][ee'][dd'] | %47
 [eg=c']3 [egc']3 [fac']2 [ac'e']- [ac'e'] [fad']2 |!8va(! [bd'f']3 [bd'f']3 [bd'f']3 [bd'e'=g']3 | %49
!<(! [=c'e'a']3 [ac'e']3!8va)! [GAce][Ff][Gg] [cega][Bb][=c=c']!<)! | %50
[K:Db]!ff!"^Grandiose\n" [fad']3 [fad']3- [fad'][cc'][dd'] [ee'][dd'][Bb] | %51
 [fbd']3 [fbd']3- [fbd'][cc'][dd'] [ee'][dd']>[Aa] | [dgb]3 [dgb]3- [dgb][Gg][Aa] [Bb][Aa][Gg] | %53
!>(! [Acf]6- [Acf]3!>)!!f! F2 A |[M:10/8] A3 E2 F [B,DEG][B,DEA][DEGB][Cc] | %55
[M:12/8] [FBd][Cc][B,B] [DFA]6 [Adf]2 [FAd] | [cea]3 [cea]6 [dgb]2 [gbd'] | %57
 d'2 a _c'2 b a2 f g2 e | f2 d e2 =c d2 A A3 |!mf! d'2 a _c'2 b a2 f g2 e | %60
!>(! f2 d e2 =c d2 A!>)!!p! A3 |] %61
V:4
[K:Bb] (B,,F,D- DF,D) (B,,F,D- DF,D) | (B,,F,D- DF,D) (B,,F,D- DF,D) || %2
[K:Bb] (B,,F,D- DF,D) (B,,F,D- DF,D) | (G,,D,B,- B,D,B,) (G,,D,B,- B,D,B,) | %4
 (E,,B,,G,- G,B,,G,) (E,,B,,G,- G,B,,G,) | (D,,A,,F,- F,A,,F,) (D,,A,,F, A,F,D,) | %6
[M:10/8] (C,E,G, CG,E,) C,G,CG, |[M:12/8] (G,,D,G, B,G,D,) (G,,D,G, B,3) | %8
 F,,C,F, A,CF !arpeggio![F,B,E]6 | (B,,F,D- DF,D) (B,,F,D- DF,D) | (B,,F,D- DF,D) (B,,F,D- DF,D) | %11
 (G,,D,B,- B,D,B,) (G,,D,B,- B,D,B,) | (E,,B,,G,- G,B,,G,) (E,,B,,G,- G,B,,G,) | %13
 (D,,A,,F,- F,A,,F,) (D,,A,,F, A,F,D,) |[M:10/8] (C,E,G, CG,E,) (C,G,CG,) | %15
[M:12/8] (G,,D,G, B,G,D,) (G,,D,G, B,3) | (F,,C,F, A,CF) !arpeggio![F,G,B,E]6 | %17
[M:6/8] z!>(! FE DC!>)!B, |[M:12/8] A,3 D3 A,3 G,3 | A,3 D3 A,3- A,2 G, | A,3 D3 D3 C3 | %21
 C3 C3- C3 CA,=E, | x6 (G,,D,B,- B,3) | x6 (F,,C,A,- A,3) | (D,,A,,D, F,A,D) [G,F]6 | %25
 C,,G,,C, [=E,G,]3- [E,G,]3 z3 | (B,,F,D- DF,D) (B,,F,D- DF,D) | %27
 (G,,D,B,- B,D,B,) (G,,D,B,- B,D,B,) | (E,,B,,G,- G,B,,G,) (E,,B,,G,- G,B,,G,) | %29
 (D,,A,,F,- F,A,,F,) (D,,A,,F, A,F,D,) |[M:10/8] C,E,G, CG,E, C,G,CG, | %31
[M:12/8] G,,D,G, B,G,D, G,,D,G, B,3 | F,,C,F, A,CF !arpeggio![F,G,B,E]6 | %33
[M:6/8] !tenuto!B,,3 !tenuto!_A,,3 |[K:Gb][M:12/8] (G,,D,B,- B,D,B,) (G,,D,B,- B,D,B,) | %35
 (E,,B,,G,- G,B,,G,) (E,,B,,G,- G,B,,G,) | (C,,G,,E,- E,G,,E,) (C,,G,,E,- E,G,,E,) | %37
 (B,,,F,,B,, D,B,,D, F,D,F, !tenuto!B,2 !tenuto!D) |[M:10/8] (A,,E,G, CG,E,) (A,,E,A,E,) | %39
[M:12/8] (E,,B,,E, G,B,D) (E,,B,,E, G,B,,E,,) | (D,,A,,D, F,A,D FDB,) [D,G,]3 | %41
[M:6/8] (G,B,D, C,B,,A,,) |[M:12/8] B,,6 C,6 | B,,6 C,6 | B,,6 G,,3 A,,3 | %45
 D,,A,,D, F,A,D x2 x =C,3 | (B,,D,B, D3) (E,,A,,E, G,3) | (A,,E,G, =C3) (D,,A,,F, A,3) | %48
 [B,,,B,,]6 [E,,E,]6 | [A,,,A,,]6 !//-!A,,,3 A,,3 | %50
[K:Db]!8vb(!!ped! !>![D,,,D,,]3!8vb)! [F,A,D]2!ped-up! !>![A,,,A,,]!ped! !>![D,,D,]3 [F,A,D]2!ped-up! !>![C,,C,] | %51
!ped! !>![B,,,B,,]3 [F,B,D]2!ped-up! !>![F,,,F,,]!ped! !>![B,,,B,,]3 [F,B,D]2!ped-up! !>![A,,,A,,] | %52
 !>![B,,,B,,]12 | (F,,C,F, A,F,A, C6) |[M:10/8] [F,B,D]6 E,,2 E,,2 |[M:12/8] B,,6 B,,,6 | %56
 (A,,E,A, CA,C E3) A,,3 | [D,,D,]12- | [D,,D,]12 |!8vb(! D,,,12- | %60
 D,,,6-!8vb)! D,,2 [D,,A,,] [D,,A,,]3 |] %61
V:5
[K:Bb] B,,6 B,,6 | B,,6 B,,6 ||[K:Bb] B,,6 B,,6 | G,,6 G,,6 | E,,6 E,,6 | D,,6 D,,6 | %6
[M:10/8] C,6 C,4 |[M:12/8] G,,6 G,,6 | F,,6 G,6 | B,,6 B,,6 | B,,6 B,,6 | G,,6 G,,6 | E,,6 E,,6 | %13
 D,,6 D,,6 |[M:10/8] C,6 C,4 |[M:12/8] G,,6 G,,6 | x12 |[M:6/8] x6 |[M:12/8] x12 | x12 | x12 | %21
 x12 | D,6 G,,6 | C,,6 F,,6 | D,,6 x6 | C,,6- C,,3 x3 | B,,6 B,,6 | G,,6 G,,6 | E,,6 E,,6 | %29
 D,,6 D,,6 |[M:10/8] C,6 C,4 |[M:12/8] G,,6 G,,6 | F,,6 x6 |[M:6/8] x6 |[K:Gb][M:12/8] G,,6 G,,6 | %35
 E,,6 E,,6 | C,,6 C,,6 | x12 |[M:10/8] A,,6 A,,4 |[M:12/8] E,,6 E,,6 | x12 |[M:6/8] x6 | %42
[M:12/8] x12 | x12 | x12 | D,,6- D,,3 x2 x | B,,6 E,,6 | A,,6 D,,6 | x12 | x12 | %50
[K:Db]!8vb(! x3!8vb)! x9 | x12 | x3 [D,G,B,]3 [G,B,D]6 | F,,12 |[M:10/8] x10 |[M:12/8] x12 | %56
 A,,6- A,,3 A,,,3 | x12 | x12 |!8vb(! x12 | x6!8vb)! x6 |] %61
V:6
[K:Bb] x12 | x12 ||[K:Bb] x12 | x12 | x12 | x12 |[M:10/8] x10 |[M:12/8] x12 | x12 | x12 | x12 | %11
 x12 | x12 | x12 |[M:10/8] x10 |[M:12/8] x12 | x12 |[M:6/8] x6 |[M:12/8] x12 | x12 | x12 | x12 | %22
 (fdA) (fdA) fd!arpeggio![Bdf]- [Bdf]3 | =ecB =ecB =ec[Ace]- [Ace]3/2 z/ z | x12 | x12 | x12 | %27
 x12 | x12 | x12 |[M:10/8] x10 |[M:12/8] x12 | x12 |[M:6/8] z!<(! !tenuto!B,!tenuto!C x x x!<)! | %34
[K:Gb][M:12/8] x12 | x12 | x12 | x12 |[M:10/8] x10 |[M:12/8] x12 | x12 |[M:6/8] x6 |[M:12/8] x12 | %43
 x12 | x12 | x12 | x12 | x12 |!8va(! x12 | x6!8va)! x6 |[K:Db] x12 | x12 | x12 | x12 | %54
[M:10/8] x10 |[M:12/8] x12 | x12 | [fad']12 | x12 | x12 | x12 |] %61

